X:1
T:Y Lancers
M:6/8
R:Jig
K:D
D |: D2 dd2 B | AFA D2 E | F2 D FAF | F2 E E2 F |
D2 dd2 B | AFA D2 E | F2 d E2 c |1 d3 D2  D:|2 d3 D2 d||
f2 d faf | e2 c A2 e | d2 f B2 d| c2 e A2 e |
f2 d FAF | e2 c A2 c | Bcd EF^G | 1 A3 A d :|2 ABA GFE||
